X: 12
T:Western Country
R:Reel
M:4/4
L:1/8
N:from Dirk Powell, Rounder CD 0444, transcribed by Bruce Thomson
K:D
|:fafedABc|dBAGF4|A2A2BABd|f3ff4|fafedABc|
dBAGF4|A2AABABc|d3dd4:|fgagf2a2|b3abafg|abagfga2|
e3ee2fg|abagfga2|b3abafg|abagfgfe|d3dd4:|

